src/basic/700/u1F4D6-book.svg

<svg width="19" height="20" viewBox="0 0 19 20" fill="none" xmlns="http://www.w3.org/2000/svg">
<path fill-rule="evenodd" clip-rule="evenodd" d="M6.99999,3v1h-4v10h4v1h-4.5h-0.5v-0.5v-11v-0.5h0.5zM1.00003,4l-0.00003,12h6.5v1h-7h-0.5v-0.5l0.00003,-12.5zM9.00001,5.99467c-0.00284,-1.10622 -0.89154,-1.99467 -1.97825,-1.99467v-1c1.03547,0 1.94489,0.53127 2.47826,1.33582c0.53338,-0.80455 1.44278,-1.33582 2.47828,-1.33582v1c-1.0867,0 -1.9754,0.88845 -1.9783,1.99467c0,0.00178 0,0.00355 0,0.00533v0v8.777c0.528,-0.4825 1.2291,-0.777 2,-0.777v1c-1.0884,0 -1.9782,0.8913 -1.9782,2h-0.0218h-0.02174h-0.95649h-0.02176h-0.02175c0,-1.1087 -0.8898,-2 -1.97826,-2v-1c0.77094,0 1.472,0.2945 2.00001,0.777l0.00001,-8.777h-0.00001c0,-0.00178 0,-0.00355 0,-0.00533zM3.99999,5h3v1h-3zM7,8h-3v-1h3zM4,11h3v1h-3zM7,10h-3v-1h3zM16.5,3h0.5v0.5v11v0.5h-0.5h-4.5v-1h4v-10h-4v-1zM18,4h1v12.5v0.5h-0.5h-7v-1h6.5zM15,6h-3v-1h3zM12,7h3v1h-3zM15,12h-3v-1h3zM12,9h3v1h-3z" fill="black"/>
</svg>

<svg width="19" height="20" viewBox="0 0 19 20" fill="none" xmlns="http://www.w3.org/2000/svg">
<path fill-rule="evenodd" clip-rule="evenodd" d="M2.49999 3H1.99999V3.5V14.5V15H2.49999H6.99999V14H2.99999V4H6.99999V3H2.49999ZM3.17097e-05 4L0 16.5V17H0.500001H7.5V16H1L1.00003 4H3.17097e-05ZM9.00001 5.99467C8.99717 4.88845 8.10847 4 7.02176 4V3C8.05723 3 8.96665 3.53127 9.50002 4.33582C10.0334 3.53127 10.9428 3 11.9783 3V4C10.8916 4 10.0029 4.88845 10 5.99467C10 5.99645 10 5.99822 10 6H10L10 14.777C10.528 14.2945 11.2291 14 12 14V15C10.9116 15 10.0218 15.8913 10.0218 17H10H9.97826H9.02177H9.00001H8.97826C8.97826 15.8913 8.08846 15 7 15V14C7.77094 14 8.472 14.2945 9.00001 14.777L9.00002 6H9.00001C9.00001 5.99822 9.00001 5.99645 9.00001 5.99467ZM3.99999 6H6.99999V5H3.99999V6ZM7 8H4V7H7V8ZM4 12H7V11H4V12ZM7 10H4V9H7V10ZM16.5 3H17V3.5V14.5V15H16.5H12V14H16V4H12V3H16.5ZM18 4H19L19 16.5V17H18.5H11.5V16H18L18 4ZM15 6H12V5H15V6ZM12 8H15V7H12V8ZM15 12H12V11H15V12ZM12 10H15V9H12V10Z" fill="black"/>
</svg>
